X:1
T:Title
%%score ( 1 2 ) ( 3 4 )
L:1/8
Q:1/4=180
M:3/2
K:G
V:1 treble nm="Midi_20"
V:2 treble 
V:3 bass nm="Midi_20"
V:4 bass 
V:1
"^Sunnyside(12 10. 12 10.)""^E. J. Hopkins\n(1818-1901)""^John Monsell\n(1811-75)""^O worship the Lord in the beauty of holiness"{G} G6 G2 A4 | %1
 F4 F4 G4 | A4 B4 c4 | B6 A2 G4 || c4 d4 e4 | d4 B4 A4 | G6 F2 G4 | A12 |[M:3/2]{A} A4 B4 c4 | %9
 B6 A2 G4 | c4 d4 e4 | d6 c2 B4 || c4 B4 A4 | G4 d4 B4 | B6 c2 A4 | G12 |] %16
V:2
{D} D6 D2 E4 | D4 C4 B,4 | E4 D4 D4 | D6 D2 D4 || G4 G4 G4 | G4 D4 D4 | B,6 D2 ^C4 | D12 | %8
[M:3/2]{F} F4 G4 F4 | G6 D2 D4 | G4 G4 G4 | G6 G2 G4 || E4 ^D4 F4 | E4 =D4 E4 | D6 E2 C4 | B,12 |] %16
V:3
{B,} B,6 B,2 A,4 | A,4 A,4 G,4 | G,4 G,4 F,4 | G,6 C2 B,4 || C4 B,4 C4 | D4 G,4 F,4 | G,6 A,2 G,4 | %7
 F,12 | %8
[M:3/2]"^1. O worship the Lord in the beauty of holiness,\nBow down before Him, His glory proclaim;\nWith gold of obedience and incense of lowliness,\nKneel and adore Him, the Lord is His name.\n\n2. Low at His feet lay thy burden of carefulness,\nHigh on His heart He will bear it for thee,\nComfort thy sorrows and answer thy prayfulness,\nGuiding thy steps as may best for thee be."{D} D4 D4 D4 | %9
 D6 C2 B,4 | G,4 B,4 C4 | D6 G,2 G,4 || %12
"^3. Fear not to enter His courts in the slenderness\nOf the poor wealth thou would'st reckon as thine:\nTruth in its beauty and love in its tenderness,\nThese are the offerings to lay on His shrine.\n\n4. These, though we bring them in trembling and fearfulness,\nHe will accept for the name that is dear:\nMornings of joy give for evenings of tearfulness,\nTrust for our trembling and hope for our fear." A,4 F,4 B,4 | %13
 B,4 G,4 G,4 | G,6 G,2 F,4 | G,12 |] %16
V:4
{G,} G,4 B,,4 C,4 | D,4 D,4 E,4 | C,4 D,4 D,4 | G,6 G,2 G,4 || E,4 D,4 C,4 | B,,4 B,,4 D,4 | %6
 E,6 F,2 E,4 | D,12 |[M:3/2]{D,} C4 B,4 A,4 | G,6 G,2 G,4 | E,4 D,4 C,4 | B,,6 B,,2 E,4 || %12
 A,,4 B,,4 ^D,4 | E,4 B,,4 C,4 | D,6 C,2 D,4 | G,,12 |] %16

